ix/profile-delete_bulk.svg

<svg viewBox="0 0 24 24" fill="none" xmlns="http://www.w3.org/2000/svg" height="1em" width="1em">
  <path d="M12 2C9.38 2 7.25 4.13 7.25 6.75C7.25 9.32 9.26 11.4 11.88 11.49C11.96 11.48 12.04 11.48 12.1 11.49C12.12 11.49 12.13 11.49 12.15 11.49C12.16 11.49 12.16 11.49 12.17 11.49C14.73 11.4 16.74 9.32 16.75 6.75C16.75 4.13 14.62 2 12 2Z" fill="#292D32"/>
  <path opacity="0.4" d="M17.0809 14.1499C14.2909 12.2899 9.74094 12.2899 6.93094 14.1499C5.66094 14.9999 4.96094 16.1499 4.96094 17.3799C4.96094 18.6099 5.66094 19.7499 6.92094 20.5899C8.32094 21.5299 10.1609 21.9999 12.0009 21.9999C13.8409 21.9999 15.6809 21.5299 17.0809 20.5899C18.3409 19.7399 19.0409 18.5999 19.0409 17.3599C19.0309 16.1299 18.3409 14.9899 17.0809 14.1499Z" fill="#292D32"/>
  <path d="M13.0593 17.3799L13.9393 16.4999C14.2293 16.2099 14.2293 15.7299 13.9393 15.4399C13.6493 15.1499 13.1693 15.1499 12.8793 15.4399L11.9993 16.3199L11.1193 15.4399C10.8293 15.1499 10.3493 15.1499 10.0593 15.4399C9.7693 15.7299 9.7693 16.2099 10.0593 16.4999L10.9393 17.3799L10.0593 18.2599C9.7693 18.5499 9.7693 19.0299 10.0593 19.3199C10.2093 19.4699 10.3993 19.5399 10.5893 19.5399C10.7793 19.5399 10.9693 19.4699 11.1193 19.3199L11.9993 18.4399L12.8793 19.3199C13.0293 19.4699 13.2193 19.5399 13.4093 19.5399C13.5993 19.5399 13.7893 19.4699 13.9393 19.3199C14.2293 19.0299 14.2293 18.5499 13.9393 18.2599L13.0593 17.3799Z" fill="#292D32"/>
</svg>

<svg viewBox="0 0 24 24" fill="none" xmlns="http://www.w3.org/2000/svg" height="1em" width="1em">
  <path d="M12 2C9.38 2 7.25 4.13 7.25 6.75c0 2.57 2.01 4.65 4.63 4.74.08-.01.16-.01.22 0h.07a4.738 4.738 0 0 0 4.58-4.74C16.75 4.13 14.62 2 12 2Z" fill="#292D32"/>
  <path opacity=".4" d="M17.08 14.15c-2.79-1.86-7.34-1.86-10.15 0-1.27.85-1.97 2-1.97 3.23s.7 2.37 1.96 3.21C8.32 21.53 10.16 22 12 22c1.84 0 3.68-.47 5.08-1.41 1.26-.85 1.96-1.99 1.96-3.23-.01-1.23-.7-2.37-1.96-3.21Z" fill="#292D32"/>
  <path d="m13.06 17.38.88-.88c.29-.29.29-.77 0-1.06a.754.754 0 0 0-1.06 0l-.88.88-.88-.88a.754.754 0 0 0-1.06 0c-.29.29-.29.77 0 1.06l.88.88-.88.88c-.29.29-.29.77 0 1.06.15.15.34.22.53.22s.38-.07.53-.22l.88-.88.88.88c.15.15.34.22.53.22s.38-.07.53-.22c.29-.29.29-.77 0-1.06l-.88-.88Z" fill="#292D32"/>
</svg>
